!!!!SEGMENT: pl-cz--i-71_koperski-maksymilian--vidi-aquam.krn
!!!cenid: 18xx:908
!!!COM: Koperski, Maksymilian
!!!COM-rismID: pe30060120
!!!CDT: 1812-1886
!!!CNT:
!!!OTL: Vidi aquam
!!!PDT: 1834
!!!AGN: Sacred
!!!SMS-siglum: PL-CZ
!!!SMS-shelfmark: I-71
!!!SMS-shelfwork: W
!!!SMS-variant:
!!!SMS-altvar:
!!!NIFC-rismSourceID: 300000607
!!!NIFC-islandoraID: pl-cz:31838
!!!URL-pdf-islandora: https://repozytorium.nifc.pl/islandora/object/pl-cz%3A31838/datastream/PDF/view
!!!URL-scan:
!!!ONB-nifc:
!!!OMD: Adagio
!!!AIN: 1 alto 1 bass 1 organ 2 soprn 1 tenor 1 tromt
!!!key: A
**kern	**fba	**dynam	**kern	**text	**dynam	**kern	**text	**dynam	**kern	**text	**dynam	**kern	**text	**dynam	**kern	**text	**dynam
*part6	*part6	*part6	*part5	*part5	*part5	*part4	*part4	*part4	*part3	*part3	*part3	*part2	*part2	*part2	*part1	*part1	*part1
*staff6	*staff6	*	*staff5	*staff5	*	*staff4	*staff4	*	*staff3	*staff3	*	*staff2	*staff2	*	*staff1	*staff1	*
*I"Pusaune et Organo	*	*	*I"Basſo.	*	*	*I"Tenore	*	*	*I"Alto.	*	*	*I"Cant II	*	*	*I"Canto I	*	*
*I'tbn et org	*	*	*I'B	*	*	*I'T	*	*	*I'A	*	*	*I'S 2	*	*	*I'S 1	*	*
*Itromt&Iorgan	*	*	*Ibass	*	*	*Itenor	*	*	*Ialto	*	*	*Isoprn	*	*	*Isoprn	*	*
*ICbras&ICklav	*	*	*ICvox	*	*	*ICvox	*	*	*ICvox	*	*	*ICvox	*	*	*ICvox	*	*
*clefF4	*	*	*clefF4	*	*	*clefC4	*	*	*clefC3	*	*	*clefC1	*	*	*clefC1	*	*
*	*	*	*	*	*	*ok[c#g#f#]	*	*	*ok[c#f#g#]	*	*	*ok[c#g#f#]	*	*	*ok[c#g#f#]	*	*
*k[f#c#g#]	*	*	*k[f#c#g#]	*	*	*k[f#c#g#]	*	*	*k[f#c#g#]	*	*	*k[f#c#g#]	*	*	*k[f#c#g#]	*	*
*A:	*	*	*A:	*	*	*A:	*	*	*A:	*	*	*A:	*	*	*A:	*	*
*M2/2	*	*	*M2/2	*	*	*M2/2	*	*	*M2/2	*	*	*M2/2	*	*	*M2/2	*	*
*met(c|)	*	*	*met(c|)	*	*	*met(c|)	*	*	*met(c|)	*	*	*met(c|)	*	*	*met(c|)	*	*
*all\right	*	*	*all\right	*	*	*all\right	*	*	*all\right	*	*	*all\right	*	*	*all\right	*	*
=1	=1	=1	=1	=1	=1	=1	=1	=1	=1	=1	=1	=1	=1	=1	=1	=1	=1
*2\right	*	*	*2\right	*	*	*2\right	*	*	*2\right	*	*	*2\right	*	*	*2\right	*	*
!	!	!	!LO:TX:a:i:t=Adagio.	!	!	!LO:TX:a:i:t=Adagio	!	!	!LO:TX:a:i:t=Adagi	!	!	!LO:TX:a:i:t=Vidiaquam Adagio	!	!	!LO:TX:a:i:t=Adagio	!	!
!LO:TX:a:i:t=Adagio	!	!LO:DY:b:t=for:rj	!LO:TX:a:i:t=Vidiaquam	!	!LO:DY:b:t=fo:rj	!LO:TX:a:i:t=Vidiaquam	!	!LO:DY:b:t=for:rj	!LO:TX:a:i:t=Vidiaquam	!	!LO:DY:b:t=fo:rj	!	!	!LO:DY:a	!LO:TX:a:i:t=Vidiaquam	!	!LO:DY:b:t=fo:rj
2A\	7_ x_	f	2E\	E-	f	2e^<\	E-	f	2a^\	E-	f	2ee\	E-	>	2cc#\	E-	f
!	!	!	!	!	!LO:HP:a	!	!	!LO:HP:a	!	!	!LO:HP:a	!	!	!	!	!	!LO:HP:a
4G#\	.	.	4E\	-gre-	>	4e\	-gre-	>	4a\	-gre-	>	4ee\	-gre-	.	4cc#\	-gre-	>
4C#\	x x	.	4E\	-di-	]	4e\	-di-	]	4a\	-di-	]	4ee\	-di-	]	4cc#\	-di-	]
=2	=2	=2	=2	=2	=2	=2	=2	=2	=2	=2	=2	=2	=2	=2	=2	=2	=2
!	!	!	!	!	!	!	!	!	!	!	!	!	!	!LO:DY:a	!	!	!
2D\	8_ 6_	.	2G#^>\	-en-	.	2e^\	-en-	.	2b^\	-en-	.	2b\	-en-	<	2dd^\	-en-	.
2C#\	x x	.	2A^>\	-tem	.	2e^\	-tem	.	2a^\	-tem	.	2ee\	-tem	[	2cc#^\	-tem	.
=3	=3	=3	=3	=3	=3	=3	=3	=3	=3	=3	=3	=3	=3	=3	=3	=3	=3
!	!	!	!	!	!LO:HP:a	!	!	!LO:HP:a	!	!	!	!	!	!	!	!	!
!	!	!	!	!	!	!	!	!	!	!	!	!	!	!LO:DY:a	!	!	!
2E\	5 3	.	1E	de	<[	1e	de	>]	2g#\	de	.	8ee\L	de	>	2b\	de	.
.	.	.	.	.	>]	.	.	<[	.	.	.	8dd\	.	.	.	.	.
.	.	.	.	.	.	.	.	.	.	.	.	8cc#\	.	.	.	.	.
.	.	.	.	.	.	.	.	.	.	.	.	8b\J	.	.	.	.	.
!	!	!	!	!	!	!	!	!	!	!	!LO:DY:a	!	!	!	!	!	!
!	!	!	!	!	!	!	!	!	!	!	!	!	!	!	!LO:TX:t=P:global:problem=dynamika HP na pięciolinii	!	!
2EE/	7 5	.	.	.	.	.	.	.	8g#\L	.	>	2b\	.	]	(>8b\L	.	<
.	.	.	.	.	.	.	.	.	8a\	.	.	.	.	.	8cc#\	.	.
.	.	.	.	.	.	.	.	.	8b\	.	.	.	.	.	8dd\	.	.
.	.	.	.	.	.	.	.	.	8cc#\J	.	]]	.	.	.	8ee\J)	.	[
=4	=4	=4	=4	=4	=4	=4	=4	=4	=4	=4	=4	=4	=4	=4	=4	=4	=4
!	!	!	!	!	!LO:HP:a	!	!	!	!	!	!LO:DY:a	!	!	!	!	!	!
8r	.	.	2E\	tem-	>	2e\	tem-	[	2b\	tem-	>	2dd\	tem-	.	2dd\	tem-	.
!	!	!LO:HP:b	!	!	!	!	!	!	!	!	!	!	!	!	!	!	!
(<8EE'/L	7_ 5_	<	.	.	.	.	.	.	.	.	.	.	.	.	.	.	.
8FF#'/	.	.	.	.	.	.	.	.	.	.	.	.	.	.	.	.	.
8GG#'/J	.	.	.	.	.	.	.	.	.	.	.	.	.	.	.	.	.
8AA'/L	3_ 1_	.	4AA/	-plo	]	4e\	-plo	.	4a\	-plo	]	4cc#\	-plo	.	4cc#\	-plo	.
8AA'/	.	.	.	.	.	.	.	.	.	.	.	.	.	.	.	.	.
8BB'/	.	.	4r	.	.	4r	.	.	4r	.	.	4r	.	.	4r	.	.
8C#'/J)	.	[[	.	.	.	.	.	.	.	.	.	.	.	.	.	.	.
=5	=5	=5	=5	=5	=5	=5	=5	=5	=5	=5	=5	=5	=5	=5	=5	=5	=5
!	!	!	!	!	!LO:HP:a	!	!	!	!	!	!	!	!	!LO:DY:a	!	!	!LO:DY:b:t=fo:rj
2D#X^>\	5 3	.	2E-X\	a	<	2f#^<\	a	.	2cc#^\	a	.	2ee-X\	A	<	2aa^\	a	f
2E\	3 1	.	2En\	la-	[	2e^>\	la-	.	2b^\	la-	.	2een\	la-	[	2gg#\	la-	.
=6	=6	=6	=6	=6	=6	=6	=6	=6	=6	=6	=6	=6	=6	=6	=6	=6	=6
!	!	!	!	!	!LO:HP:a	!	!	!	!	!	!	!	!	!LO:DY:a	!	!	!
8r	.	.	2E-X\	-te-	<	2d^>\	-te-	.	2a^\	-te-	.	2aa\	-te-	>	2ff#^\	-te-	.
!	!	!LO:HP:b	!	!	!	!	!	!	!	!	!	!	!	!	!	!	!
8BB/L	7_ 5_ 3_	<	.	.	.	.	.	.	.	.	.	.	.	.	.	.	.
8C#/	.	.	.	.	.	.	.	.	.	.	.	.	.	.	.	.	.
8D/J	.	.	.	.	.	.	.	.	.	.	.	.	.	.	.	.	.
!	!	!	!	!	!	!	!	!	!LO:SIC:v:s=2g#^\	!	!	!	!	!	!	!	!
!	!	!	!	!	!	!	!	!	!LO:TX:t=P:korekta:problem	!	!	!	!	!	!	!	!
4E\	3_ 1_	.	2En\	-re	[	2c#^>\	-re	.	2a^\	-re	.	2gg#X\	-re	]	2ee\	-re	.
4G#\	.	[	.	.	.	.	.	.	.	.	.	.	.	.	.	.	.
=7	=7	=7	=7	=7	=7	=7	=7	=7	=7	=7	=7	=7	=7	=7	=7	=7	=7
!	!	!	!	!	!	!LO:N:vis=2	!	!LO:HP:a	!	!	!LO:HP:a	!	!	!LO:DY:a	!	!	!
4A\	3_ 1_	.	4A^>\	dex-	.	4B\	dex-	>	4a\	dex-	>	4ee-X\	dex-	>	4ff#^\	dex-	.
!	!	!	!	!	!LO:HP:a	!	!	!	!	!	!	!	!	!	!	!	!
4F#\	.	.	8F#\L	-tro	<	4B\	-tro	]	4a\	-tro	]	4ee-\	-tro	]	4ff#\	-tro	.
.	.	.	8A\J	.	.	.	.	.	.	.	.	.	.	.	.	.	.
!	!	!	!	!	!	!	!	!LO:HP:a	!	!	!LO:HP:a	!	!	!LO:DY:a	!	!	!
4B^<\	4	.	4B\	Al-	[	4g#\	Al-	>	4g#\	Al-	>	4cc#\	Al-	<	4ee^\	Al-	.
4BB/	3	.	4BB/	-le-	.	4f#\	-le-	]	4f#\	-le-	]	4ff#X\	-le-	[	4dd#X^\	-le-	.
!	!	!	!	!	!	!	!	!	!LO:LB:g=original	!	!	!	!	!	!	!	!
=8	=8	=8	=8	=8	=8	=8	=8	=8	=8	=8	=8	=8	=8	=8	=8	=8	=8
!	!	!LO:HP:b	!	!	!LO:DY:a	!	!	!LO:HP:a	!	!	!	!	!	!LO:DY:a	!	!	!LO:HP:a
4BB/	3_ 1_	<	4BB/	-lu-	<	2f#\	-lu-	>]	2a^\	-lu-	.	2aa\	-lu-	>	2ff#\	-lu-	>
8C#/L	.	.	8C#/L	.	.	.	.	.	.	.	.	.	.	.	.	.	.
!	!	!	!LO:SIC:v:s=8D#	!	!	!	!	!	!	!	!	!	!	!	!	!	!
8D#X/J	x x	[	8D/J	.	.	.	.	.	.	.	.	.	.	.	.	.	.
!	!	!LO:HP:b	!	!	!	!	!	!LO:HP:a	!	!	!	!	!	!	!	!	!
!	!	!LO:DY:b:t=for	!	!	!	!	!	!	!	!	!	!	!	!	!	!	!
8E/L	.	f >	4E\	-ja	[	4e\	-ja	<[	4g#X^\	-ja	.	4gg#\	-ja	]	4ee\	-ja	]
8D#/	.	.	.	.	.	.	.	.	.	.	.	.	.	.	.	.	.
8C#/	.	.	4r	.	.	4r	.	.	4r	.	.	4r	.	.	4r	.	.
8BB/J	.	]	.	.	.	.	.	.	.	.	.	.	.	.	.	.	.
!LO:LB:g=original	!	!	!	!	!	!	!	!	!	!	!	!LO:LB:g=original	!	!	!LO:LB:g=original	!	!
=9	=9	=9	=9	=9	=9	=9	=9	=9	=9	=9	=9	=9	=9	=9	=9	=9	=9
!	!	!	!	!	!	!	!	!	!	!	!	!	!	!	!	!	!LO:DY:b:rj
2AA#X^>/	7n 5	.	2r	.	.	2r	.	.	2r	.	.	2r	.	.	(4.ee\	Et	p <
.	.	.	.	.	.	.	.	.	.	.	.	.	.	.	8ff#\)	.	.
!	!	!	!	!	!	!	!	!LO:DY:b:t=fo	!	!	!	!	!	!	!	!	!
2r	.	.	4r	.	.	4r	.	f	4r	.	.	4r	.	.	4ggn\	om-	.
!	!	!	!	!	!	!	!	!LO:DY:a	!	!	!LO:HP:b	!	!	!	!	!	!
.	.	.	4G#^>\	Per-	.	4e\	Per-	>	4gn\	Per-	>	4ggn\	Per-	.	4a#X\	-nes	[
!	!	!	!LO:LB:g=original	!	!	!	!	!	!	!	!	!	!	!	!	!	!
=10	=10	=10	=10	=10	=10	=10	=10	=10	=10	=10	=10	=10	=10	=10	=10	=10	=10
!	!	!	!	!	!	!	!	!	!	!	!	!	!	!LO:DY:a	!	!	!
4D\	6 3 1#	.	(4F#\	-ve-	.	(4d\	-ve-	.	(4f#\	-ve-	.	(4ff#\	-ve-	>	(4b\	ad	<
!	!	!	!	!	!LO:DY:a	!	!	!	!	!	!	!	!	!	!	!	!
4C#\	8 6\	.	4BB-X/)	.	<	4c#\	.	.	4e\)	.	.	4ee\)	.	.	4cc#\	.	.
8D/L	8 6nr	.	4BBn/	-nit	.	4B\)	-nit	]	4d\	-nit	]	4dd\	-nit	]	4dd\)	quoſ	.
8C#'/	.	.	.	.	.	.	.	.	.	.	.	.	.	.	.	.	.
8BB'/	.	.	4r	.	[	4r	.	.	4r	.	.	4r	.	.	4r	.	[
8AA'/J	.	.	.	.	.	.	.	.	.	.	.	.	.	.	.	.	.
!	!	!	!	!	!	!LO:LB:g=original	!	!	!	!	!	!	!	!	!	!	!
=11	=11	=11	=11	=11	=11	=11	=11	=11	=11	=11	=11	=11	=11	=11	=11	=11	=11
*	*	*	*	*	*	*	*	*	*	*	*	*	*	*	*	*	*^
!	!	!	!	!	!	!	!	!	!	!	!	!	!	!	!	!	!LO:HP:a	!LO:DY:b:rj
2GG#X/	7n 5	.	2r	.	.	2r	.	.	2r	.	.	2r	.	.	4.dd\	a-	<	p
.	.	.	.	.	.	.	.	.	.	.	.	.	.	.	8ee\	.	.	.
!	!	!	!	!	!	!	!	!	!	!	!	!	!	!	!	!	!	!LO:DY:b:t=for
4r	.	.	4r	.	.	4r	.	.	4r	.	.	4r	.	.	4ffn\	.	.	f
!	!	!	!	!	!	!	!	!LO:HP:b	!	!	!LO:HP:b	!	!	!LO:DY:a	!	!	!	!
4D\	.	.	4B^>\	Per-	.	4d\	Per-	>	4fn\	Per-	>	4ffn\	Per-	>	4g#X/	-qua	[	.
*	*	*	*	*	*	*	*	*	*	*	*	*	*	*	*	*	*v	*v
=12	=12	=12	=12	=12	=12	=12	=12	=12	=12	=12	=12	=12	=12	=12	=12	=12	=12
!	!	!	!	!	!LO:HP:b	!	!	!	!	!	!	!	!	!	!	!	!
4C#/	6 3	.	(4E\	-ve-	<	(4c#\	-ve-	.	(4e\	-ve-	.	(4ee\	-ve-	.	(4a\	i-	<
(<4GG#X/	.	.	4G#X\	.	.	4B\	.	.	4d\)	.	.	4dd\	.	.	4b\	.	.
!	!	!	!	!	!	!	!	!LO:DY:a	!	!	!	!	!	!	!	!	!
8AA/L)	.	.	4A\)	-nit	.	4A\)	-nit	] pp	4c#\	-nit	]	4cc#\)	-nit	]	4cc#\)	-sta	.
8AA'/	.	.	.	.	.	.	.	.	.	.	.	.	.	.	.	.	.
!	!	!	!	!	!LO:DY:a	!	!	!	!	!	!	!	!	!	!	!	!
8BB'/	.	.	4r	.	[ pp	4r	.	.	4r	.	.	4r	.	.	4r	.	[
8C#'/J	.	.	.	.	.	.	.	.	.	.	.	.	.	.	.	.	.
=13	=13	=13	=13	=13	=13	=13	=13	=13	=13	=13	=13	=13	=13	=13	=13	=13	=13
!	!	!	!	!	!	!	!	!	!	!	!	!	!	!	!	!	!LO:DY:a:rj
!	!	!LO:DY:b	!	!	!LO:DY:a	!	!	!LO:HP:a	!	!	!LO:DY:b:rj	!	!	!LO:DY:b:rj	!	!	!LO:HP:a
4D\	5	pp	4D\	Sal-	<	4f#\	sal-	>	4a\	Sal-	pp	4dd\	Sal-	pp >	4dd\	Sal-	pp >
4D\	.	.	4D\	-vi	.	4f#\	-vi	]	4a\	-vi	.	4dd\	-vi	.	4dd\	-vi	]
!	!	!	!	!	!	!	!	!LO:HP:a	!	!	!	!	!	!	!	!	!
4E\	6_ 4_	.	4E\	fac-	.	4e\	fac-	<	4a\	fac-	.	4cc#\	fac-	.	4cc#^\	fac-	.
4E\	.	.	4E\ 4e	-ti	[	4e\	-ti	[	4a\	-ti	.	4cc#\	-ti	]	4cc#^\	-ti	.
=14	=14	=14	=14	=14	=14	=14	=14	=14	=14	=14	=14	=14	=14	=14	=14	=14	=14
!	!	!	!	!	!LO:DY:a	!	!	!LO:HP:a	!	!	!	!	!	!LO:HP:a	!	!	!
4F#\	4_	.	4F#\	sunt	<	4d\	sunt	<	4f#\	sunt	.	4dd\	sunt	<	4b^\	sunt	.
4F#\	.	.	4F#\	et	.	4d\	et	.	4f#\	et	.	4dd\	et	.	4b^\	et	.
!	!	!	!	!	!	!	!	!	!	!	!LO:HP:a	!	!	!	!	!	!LO:HP:a
4GG#X/	5_ 3_	.	4G#\	di-	.	8d\L	di-	.	8d\L	di-	<	8dd\L	di-	.	8b\L	di-	<
.	.	.	.	.	.	8e\J	.	.	8e\J	.	[	8ee\J	.	[	8cc#\J	.	[
!	!	!	!	!	!	!	!	!	!	!	!LO:HP:a	!	!	!LO:HP:a	!	!	!LO:HP:a
4GG#/	x x	.	4G#\	-cent	[	8f#\L	-cent	.	8f#\L	-cent	>	8ff#\L	-cent	>	8dd\L	-cent	>
.	.	.	.	.	.	8d\J	.	[	8d\J	.	]	8dd\J	.	]	8b\J	.	]
!	!	!	!	!	!	!	!	!	!LO:LB:g=original	!	!	!	!	!	!LO:LB:g=original	!	!
=15	=15	=15	=15	=15	=15	=15	=15	=15	=15	=15	=15	=15	=15	=15	=15	=15	=15
!	!	!	!	!	!LO:HP:b	!	!	!LO:HP:a	!	!	!	!	!	!LO:HP:a	!	!	!
4AA/	.	.	4A\	Al-	<	4c#\	Al-	>	4c#\	Al-	.	4cc#\	Al-	>	4a^\	Al-	.
4C#/	.	.	4c#\	-le-	.	4c#\	-le-	]	4c#\	-le-	.	4cc#\	-le-	]	4a\	-le-	.
!	!	!	!	!	!	!	!	!LO:HP:a	!	!	!	!	!	!	!	!	!
4E/	.	.	4e\	-lu-	.	2B\	-lu-	<[	2B\	-lu-	.	2b^\	-lu-	.	2g#X\	-lu-	.
4EE/	.	.	4E\	.	[	.	.	.	.	.	.	.	.	.	.	.	.
!	!	!	!	!	!	!	!	!	!	!	!	!LO:LB:g=original	!	!	!	!	!
=16	=16	=16	=16	=16	=16	=16	=16	=16	=16	=16	=16	=16	=16	=16	=16	=16	=16
!	!	!LO:DY:b:t=for	!	!	!LO:HP:a	!	!	!	!	!	!	!	!	!	!	!	!LO:DY:a
8r	.	f	2A\	-ja	>]	2c#\	-ja	.	2c#\	-ja	.	2cc#^\	-ja	.	2a\	-ja	<[
8AA'/L	.	.	.	.	.	.	.	.	.	.	.	.	.	.	.	.	.
8.GG#X'/	.	.	.	.	.	.	.	.	.	.	.	.	.	.	.	.	.
16AA'/Jk	.	.	.	.	.	.	.	.	.	.	.	.	.	.	.	.	.
!LO:LB:g=original	!	!	!	!	!	!	!	!	!	!	!	!	!	!	!	!	!
=-	=-	=-	=-	=-	=-	=-	=-	=-	=-	=-	=-	=-	=-	=-	=-	=-	=-
8.C#/L	.	.	2r	.	.	2r	.	.	2r	.	.	2r	.	.	2r	.	.
16AA/K	.	.	.	.	.	.	.	.	.	.	.	.	.	.	.	.	.
8.E/	.	.	.	.	.	.	.	.	.	.	.	.	.	.	.	.	.
16C#/Jk	.	.	.	.	.	.	.	.	.	.	.	.	.	.	.	.	.
=17	=17	=17	=17	=17	=17	=17	=17	=17	=17	=17	=17	=17	=17	=17	=17	=17	=17
!	!	!	!	!	!LO:DY:b:t=for:rj	!	!	!LO:DY:b:t=fo:rj	!	!	!LO:DY:t=for:rj	!	!	!LO:DY:b:t=fo:rj	!	!	!LO:DY:b:t=fo:rj
2AA/	3 1	.	4A\	Con-	f >	4e^>\	Con-	f	4a\	Con-	f	4cc#\	Con-	f >	4cc#\	Con-	f >
!	!	!	!	!	!	!	!	!LO:HP:a	!	!	!	!	!	!	!	!	!
.	.	.	4A\	-fi-	]	4e\	-fi-	<	4a\	-fi-	.	4cc#\	-fi-	.	4cc#\	-fi-	.
=-	=-	=-	=-	=-	=-	=-	=-	=-	=-	=-	=-	=-	=-	=-	=-	=-	=-
!	!	!	!	!	!LO:HP:a	!	!	!	!	!	!	!	!	!	!	!	!
2r	.	.	4A\	-te-	<	4e\	-te-	.	4a\	-te-	.	4cc#\	-te-	.	4cc#\	-te-	.
.	.	.	8A\	-mi-	.	8e\	-mi-	.	8a\	-mi-	.	8cc#\	-mi-	.	8cc#\	-mi-	]
!	!	!	!	!	!	!	!	!	!	!	!	!	!	!	!	!	!LO:HP:a
.	.	.	8A\	-ni	.	8e\	-ni	[	8a\	-ni	.	8cc#\	-ni	]	8cc#\	-ni	<
=18	=18	=18	=18	=18	=18	=18	=18	=18	=18	=18	=18	=18	=18	=18	=18	=18	=18
*	*	*	*	*	*	*	*^	*	*	*	*	*	*	*	*	*	*
!	!	!	!	!	!	!	!	!	!	!	!	!	!	!	!LO:DY:a	!	!	!
.	.	.	.	.	.	8qqf#/	.	.	.	8qqcc#/	.	.	16qqee/	.	>	8qqee/	.	.
!	!	!LO:DY:b:t=for:rj	!	!	!	!	!	!	!	!	!	!	!	!	!	!	!	!
8r	.	f	8B-X'\L	Do-	[	8e^>\	Do-	[[quo-	.	8b^\	Do-	.	8dd\	Do-	.	8dd\	Do-	.
!	!	!	!	!	!	!	!	!	!LO:DY:a	!	!	!	!	!	!	!	!	!
8E'\L	7_ 5_	.	8Bn'\J	-mi-	.	8e\	-mi-	-ni-	<	8b^\	-mi-	.	8dd\	-mi-	.	8dd\	-mi-	[
8.D#X'\	.	.	4E\	-no	.	4e\	-no	-am]]	[	4b\^	-no	.	4dd\	-no	]	4dd\	-no	.
16E'\Jk	x x	.	.	.	.	.	.	.	.	.	.	.	.	.	.	.	.	.
!	!	!	!	!	!	!	!	!	!	!LO:N:vis=4	!	!	!	!	!	!	!	!
8.G#'\L	.	.	2r	.	.	2r	.	.	.	2r	.	.	2r	.	.	2r	.	.
16E'\K	.	.	.	.	.	.	.	.	.	.	.	.	.	.	.	.	.	.
8.B'\	.	.	.	.	.	.	.	.	.	.	.	.	.	.	.	.	.	.
16G#'\Jk	.	.	.	.	.	.	.	.	.	.	.	.	.	.	.	.	.	.
*	*	*	*	*	*	*	*v	*v	*	*	*	*	*	*	*	*	*	*
!	!	!	!	!	!	!LO:LB:g=original	!	!	!	!	!	!	!	!	!	!	!
=19	=19	=19	=19	=19	=19	=19	=19	=19	=19	=19	=19	=19	=19	=19	=19	=19	=19
!	!	!	!	!	!	!	!	!	!	!	!	!	!	!LO:HP:a	!	!	!LO:DY:a
2E\	7 5	.	2B^>\	Quo-	.	2e^>\	quo-	.	2b^\	quo-	.	2dd\	quo-	>	2dd\	quo-	>
!	!	!	!	!	!LO:HP:a	!	!	!LO:HP:a	!	!	!	!	!	!	!	!	!
2r	.	.	4B\	-ni-	>	4e\	-ni-	<	4b\	-ni-	.	4dd\	-ni-	.	4dd\	-ni-	.
.	.	.	4B\	-am	]]	4e\	-am	[	4b\	-am	.	4dd\	-am	]	4dd\	-am	]
=20	=20	=20	=20	=20	=20	=20	=20	=20	=20	=20	=20	=20	=20	=20	=20	=20	=20
!	!	!	!	!	!LO:HP:a	!	!	!LO:DY:a	!	!	!	!	!	!LO:HP:a	!	!	!LO:DY:a
8r	.	.	8B\L	bo-	>	4e\	bo-	<	(8b\L	bo-	.	8dd\L	bo-	>	8dd\L	bo-	>
8AA'/L	3_ 1_	.	8A\J	.	.	.	.	.	8a\J)	.	.	8cc#\J	.	.	8cc#\J	.	.
8.GG#X'/	.	.	4A\	-nus	]	4e\	-nus	[	4a\	-nus	.	4dd\	-nus	.	4cc#\	-nus	]
16AA'/Jk	x x	.	.	.	.	.	.	.	.	.	.	.	.	.	.	.	.
8.C#'/L	.	.	2r	.	.	2r	.	.	2r	.	.	2r	.	]	2r	.	.
16AA'/K	.	.	.	.	.	.	.	.	.	.	.	.	.	.	.	.	.
8.E'/	.	.	.	.	.	.	.	.	.	.	.	.	.	.	.	.	.
16C#'/Jk	.	.	.	.	.	.	.	.	.	.	.	.	.	.	.	.	.
=21	=21	=21	=21	=21	=21	=21	=21	=21	=21	=21	=21	=21	=21	=21	=21	=21	=21
!	!	!	!	!	!	!	!	!	!LO:SIC:v:l:s=sae-	!	!	!	!	!LO:DY:a	!	!	!
4AA#X/	7n_ 5_	.	2A#X^>\	quo-	.	2e^>\	quo-	.	2cc#^<\	se-	.	2g#\	quo-	>	2gg#^\	quo-	.
4C#/	.	.	.	.	.	.	.	.	.	.	.	.	.	.	.	.	.
!	!	!	!	!	!LO:HP:a	!	!	!LO:HP:a	!	!	!	!	!	!	!	!	!
4E/	x x	.	4A#\	-ni-	>	4e\	-ni-	<	4cc#^<\	-cu-	.	4g#\	-ni-	.	4gg#\	-ni-	.
4C#/	.	.	4A#\	-am	]	4e\	-am	[	4cc#\	-lum	.	4g#\	-am	]	4gg#\	-am	.
!	!	!	!	!	!	!	!	!	!LO:LB:g=original	!	!	!	!	!	!LO:LB:g=original	!	!
=22	=22	=22	=22	=22	=22	=22	=22	=22	=22	=22	=22	=22	=22	=22	=22	=22	=22
!	!	!	!LO:SIC:v:l:s=sae-	!	!	!	!	!	!	!	!	!	!	!LO:HP:a	!	!	!
2D\	3 1	.	2B^>\	se-	.	2f#^>\	Sae-	.	2dd^<\	mi-	.	4dd\	in	>	8ff#\L	in	.
!	!	!	!	!	!	!	!	!	!	!	!	!	!	!	!	!	!LO:HP:b
.	.	.	.	.	.	.	.	.	.	.	.	.	.	.	8a#X\J	.	<
!	!	!	!	!	!	!	!	!	!	!	!	!LO:SIC:v:l:s=sae-	!	!	!LO:SIC:v:l:s=Sae-	!	!
.	.	.	.	.	.	.	.	.	.	.	.	4g#X\	se-	]	8bnX\L	Se-	.
.	.	.	.	.	.	.	.	.	.	.	.	.	.	.	8cc#X\J	.	.
!	!	!	!	!	!LO:HP:a	!	!	!LO:HP:a	!	!	!	!	!	!LO:HP:a	!	!	!
2r	.	.	4B\	-cu-	>	4f#\	-cu-	<	4dd\	-se-	.	4b\	-cu-	>	8ee\L	-cu-	[
!	!	!	!	!	!	!	!	!	!	!	!	!	!	!	!	!	!LO:HP:b
.	.	.	.	.	.	.	.	.	.	.	.	.	.	.	8dd\J	.	<
.	.	.	4B\	-lum	]	4f#\	-lum	[	4dd\	-ri-	.	4f#/	-lum	]	8b\L	-lum	.
.	.	.	.	.	.	.	.	.	.	.	.	.	.	.	8ff#\J	.	[
!	!	!	!	!	!	!	!	!	!	!	!	!LO:LB:g=original	!	!	!	!	!
=23	=23	=23	=23	=23	=23	=23	=23	=23	=23	=23	=23	=23	=23	=23	=23	=23	=23
!	!	!	!	!	!LO:HP:b	!	!	!LO:HP:a	!	!	!LO:HP:b	!	!	!LO:HP:a	!	!	!
4AA/	3_ 1_	.	4A\	mi-	<	4e\	Mi-	>	(4dd\	-cor-	>	4ee\	mi-	>	4a\	mi-	.
8.C#/L	.	.	8c#\	-se-	.	8e-X\	-se-	]	4cc#\	.	.	8ee\	-se-	.	8a\	-se-	.
!	!	!	!	!	!	!	!	!LO:HP:a	!	!	!	!	!	!	!	!	!
.	.	.	8c#\	-ri-	[	8e-\	-ri-	>	.	.	.	8ee\	-ri-	.	8a\	-ri-	.
16AA/Jk	x x	.	.	.	.	.	.	.	.	.	.	.	.	.	.	.	.
!	!	!	!	!	!LO:HP:a	!	!	!	!	!	!	!	!	!	!	!	!
4E\	6 4	.	4E\	-cor-	<	4d\	-cor-	]	4b\)	-di-	.	8ee\L	-cor-	]	8a\L	-cor-	.
!	!	!	!	!	!	!	!	!	!	!	!	!	!	!LO:HP:a	!	!	!
.	.	.	.	.	.	.	.	.	.	.	.	8dd#X\J	.	<	8g#X\J	.	.
4EE/	5 3	.	8F#\	-di-	.	8G#X/	-di-	.	4g#X\	-a	]	8dd#\	-di-	.	8cc#\	-di-	.
.	.	.	8G#\	-a	[	8G#/	-a	.	.	.	.	8ee\	-a	[	8b\	-a	.
!LO:LB:g=original	!	!	!LO:LB:g=original	!	!	!	!	!	!	!	!	!	!	!	!	!	!
=24	=24	=24	=24	=24	=24	=24	=24	=24	=24	=24	=24	=24	=24	=24	=24	=24	=24
!	!	!	!	!	!	!	!	!	!	!	!LO:HP:b	!	!	!LO:HP:a	!	!	!
8r	.	.	2.G#\	e-	.	2.d^>\	e-	.	2.g#\	e-	<	2.ddn\	e-	>]	2.b^\	e-	.
8EE/L	5_ 3_	.	.	.	.	.	.	.	.	.	.	.	.	.	.	.	.
8FF#/	.	.	.	.	.	.	.	.	.	.	.	.	.	.	.	.	.
8GG#X/J	.	.	.	.	.	.	.	.	.	.	.	.	.	.	.	.	.
4AA/	5	.	.	.	.	.	.	.	.	.	.	.	.	.	.	.	.
!	!	!	!	!	!LO:DY:a	!	!	!	!	!	!	!	!	!	!	!	!
4r	.	.	4A\	-jus	<[	4c#^>\	-jus	.	4a\	-jus	[	4cc#\	-jus	.	4a^\	-jus	.
=25	=25	=25	=25	=25	=25	=25	=25	=25	=25	=25	=25	=25	=25	=25	=25	=25	=25
!LO:TX:b:i:t=Gloria	!	!	!	!	!	!	!	!LO:DY:b:rj	!	!	!LO:DY:b:t=for:rj	!	!	!LO:DY:a	!	!	!LO:DY:b:t=fo:rj
2A\	3_ 1_	.	2E^>\	Glo-	.	2e^>\	Glo-	f	2a^\	Glo-	f	2ee\	Glo-	>	2cc#\	Glo-	f
!	!	!	!	!	!LO:HP:a	!	!	!	!	!	!LO:HP:a	!	!	!	!	!	!
4G#\	.	.	4E\	-ri-	>	4e^>\	-ri-	.	4a\	-ri-	>	4ee\	-ri-	.	4cc#\	-ri-	.
!	!	!	!	!	!	!	!	!LO:HP:a	!	!	!	!	!	!	!	!	!
4C#\	x x	.	4E\	-a	]	4e\	-a	<[	4a\	-a	]	4ee\	-a	]	4cc#\	-a	.
=26	=26	=26	=26	=26	=26	=26	=26	=26	=26	=26	=26	=26	=26	=26	=26	=26	=26
2D\	8_ 6_	.	2G#^>\	pa-	.	2e^>\	pa-	.	2b^\	Pa-	.	2b^\	pa-	.	2dd\	pa-	.
!	!	!	!	!	!	!	!	!	!	!	!	!	!	!LO:HP:a	!	!	!
2C#\	.	.	2A^>\	-tri	.	2e^>\	-tri	.	2a^\	-tri	.	2ee\	-tri	<[	2cc#\	-tri	.
!	!	!	!	!	!	!LO:LB:g=original	!	!	!	!	!	!	!	!	!	!	!
=27	=27	=27	=27	=27	=27	=27	=27	=27	=27	=27	=27	=27	=27	=27	=27	=27	=27
!	!	!	!	!	!LO:DY:a	!	!	!	!	!	!LO:DY:a	!	!	!LO:DY:a	!	!	!
2E\	5 3	.	2E\	et	<	2e^>\	et	.	2g#\	et	<	8ee\L	et	>	2a\	et	.
.	.	.	.	.	.	.	.	.	.	.	.	8dd\	fi-	.	.	.	.
.	.	.	.	.	.	.	.	.	.	.	.	8cc#\	.	.	.	.	.
.	.	.	.	.	.	.	.	.	.	.	.	8b\J	.	.	.	.	.
2EE/	7 5	.	2E\	fi-	[[	2e^>\	fi-	.	8g#\L	fi-	.	2b\	.	]	8b\L	fi-	.
.	.	.	.	.	.	.	.	.	8a\	.	.	.	.	.	8cc#\	.	.
.	.	.	.	.	.	.	.	.	8b\	.	.	.	.	.	8dd\	.	.
.	.	.	.	.	.	.	.	.	8cc#\J	.	[[	.	.	.	8ee\J	.	.
!	!	!	!	!	!	!	!	!	!	!	!	!	!	!	!LO:LB:g=original	!	!
=28	=28	=28	=28	=28	=28	=28	=28	=28	=28	=28	=28	=28	=28	=28	=28	=28	=28
!	!	!	!	!	!	!	!	!LO:DY:a	!	!	!	!	!	!LO:DY:a	!	!	!
8r	.	.	2E\	-li-	.	2e\	-li-	<	2b^>\	-li-	.	2dd\	-li-	>	2dd\	-li-	.
8EE/L	7_ 5_	.	.	.	.	.	.	.	.	.	.	.	.	.	.	.	.
8FF#/	.	.	.	.	.	.	.	.	.	.	.	.	.	.	.	.	.
8GG#/J	.	.	.	.	.	.	.	.	.	.	.	.	.	.	.	.	.
8AA/L	3_ 1_	.	4AA/	-o	.	4e\	-o	[	4a\	-o	.	4cc#\	-o	]	4cc#\	-o	.
8AA/	.	.	.	.	.	.	.	.	.	.	.	.	.	.	.	.	.
8BB/	.	.	4r	.	.	4r	.	.	4r	.	.	4r	.	.	4r	.	.
8C#/J	x x	.	.	.	.	.	.	.	.	.	.	.	.	.	.	.	.
!	!	!	!	!	!	!	!	!	!LO:LB:g=original	!	!	!	!	!	!	!	!
=29	=29	=29	=29	=29	=29	=29	=29	=29	=29	=29	=29	=29	=29	=29	=29	=29	=29
!	!	!	!	!	!LO:HP:a	!	!	!	!	!	!	!	!	!LO:DY:a	!	!	!LO:DY:b:Rj
2D#X^>\	5 3	.	(2E-X\	et	<	2f#^>\	et	.	(2cc#^<\	et	.	2ee-X\	et	<	2aa\	et	f
2E\	3 1	.	2En\)	.	[	2e^>\	.	.	2b^<\)	.	.	2een\	.	[	2gg#\	.	.
!	!	!	!	!	!	!	!	!	!	!	!	!LO:LB:g=original	!	!	!	!	!
=30	=30	=30	=30	=30	=30	=30	=30	=30	=30	=30	=30	=30	=30	=30	=30	=30	=30
!	!	!	!	!	!LO:HP:a	!	!	!	!LO:S:color=grey	!	!LO:HP:b	!	!	!LO:DY:a	!	!	!
8r	.	.	(2E-X\	spi-	<	2d^>\	spi-	.	(2a\	spi-	<[	(<2aa\	spi-	>	2ff#\	spi-	.
8BB/L	7_ 5_ 3_	.	.	.	.	.	.	.	.	.	.	.	.	.	.	.	.
8C#/	.	.	.	.	.	.	.	.	.	.	.	.	.	.	.	.	.
8D/J	.	.	.	.	.	.	.	.	.	.	.	.	.	.	.	.	.
!	!	!	!	!	!	!	!	!	!LO:TX:t=P:korekta:problem	!	!LO:HP:b	!	!	!	!	!	!
4E\	3_ 1_	.	2En\)	.	[	2c#^>\	.	.	2g#@\)	.	>]	2gg#X\)	.	]	2ee\	.	.
4G#\	.	.	.	.	.	.	.	.	.	.	.	.	.	.	.	.	.
=31	=31	=31	=31	=31	=31	=31	=31	=31	=31	=31	=31	=31	=31	=31	=31	=31	=31
!	!	!	!	!	!	!	!	!	!	!	!	!	!	!LO:HP:b	!	!	!
4A\	3_ 1_	.	4A\	-ri-	.	2B^>\	-ri-	.	2a^>\	-ri-	.	[>4ee-X\	-ri-	>	2ff#\	-ri-	.
!	!	!	!	!	!LO:DY:a	!	!	!	!	!	!	!	!	!	!	!	!
4F#\	.	.	(8F#\L	.	<	.	.	.	.	.	.	4ee-\]	.	]	.	.	.
.	.	.	8A\J)	.	.	.	.	.	.	.	.	.	.	.	.	.	.
!	!	!	!	!	!	!	!	!	!	!	!LO:HP:a	!	!	!LO:HP:b	!	!	!
4B\	4	.	4B\	-tu-	[	4g#\	-tu-	.	4g#\	-tu-	>	4cc#\	-tu-	<	4ee\	-tu-	.
!	!	!	!	!	!	!	!	!LO:HP:a	!	!	!	!	!	!	!	!	!
4BB/	3	.	4BB/	-i	.	4f#\	-i	>]	4f#\	-i	]	4ff#X\	-i	[	4dd#X\	-i	.
!LO:LB:g=original	!	!	!	!	!	!	!	!	!	!	!	!	!	!	!	!	!
=32	=32	=32	=32	=32	=32	=32	=32	=32	=32	=32	=32	=32	=32	=32	=32	=32	=32
!	!	!	!	!	!LO:DY:a	!	!	!	!	!	!	!	!	!LO:DY:a	!	!	!
4BB/	.	.	(4BB/	san-	<	2f#^>\	san-	.	2a^<\	san-	.	2aa\	san-	>	2ff#\	san-	.
8C#/L	.	.	8C#/L	.	.	.	.	.	.	.	.	.	.	.	.	.	.
!	!	!	!LO:SIC:v:s=8D#	!	!	!	!	!	!	!	!	!	!	!	!	!	!
8D#X/J	.	.	8D/J)	.	.	.	.	.	.	.	.	.	.	.	.	.	.
8E/L	.	.	4E/	-cto	[	4e\	-cto	.	4g#X\	-cto	.	4gg#\	-cto	]	4ee\	-cto	.
8D#/	.	.	.	.	.	.	.	.	.	.	.	.	.	.	.	.	.
8C#/	.	.	4r	.	.	4r	.	.	4r	.	.	4r	.	.	4r	.	.
8BB/J	.	.	.	.	.	.	.	.	.	.	.	.	.	.	.	.	.
!	!	!	!LO:LB:g=original	!	!	!	!	!	!	!	!	!	!	!	!	!	!
=33	=33	=33	=33	=33	=33	=33	=33	=33	=33	=33	=33	=33	=33	=33	=33	=33	=33
2AA#X^>/	7n 5	.	2r	.	.	2r	.	.	2r	.	.	2r	.	.	(4.ee\	si-	<
.	.	.	.	.	.	.	.	.	.	.	.	.	.	.	8ff#\)	.	.
2r	.	.	4r	.	.	4r	.	.	4r	.	.	4r	.	.	4gg#\	.	.
!	!	!	!	!	!LO:DY:a	!	!	!LO:HP:a	!	!	!LO:HP:a	!	!	!LO:HP:b	!	!	!
.	.	.	8G#\	Si-	>	8e\	Si-	>	8gn\	si-	>	8ggn\	si-	>	4a#X\	-cut	[
.	.	.	8G#\	-cut	]	8e\	-cut	]	8g\	-cut	]	8gg\	-cut	.	.	.	.
=34	=34	=34	=34	=34	=34	=34	=34	=34	=34	=34	=34	=34	=34	=34	=34	=34	=34
!	!	!	!	!	!LO:HP:b	!	!	!LO:HP:a	!	!	!LO:HP:a	!	!	!	!	!	!
4D\	6 3 1#	.	4F#\	e-	<	(4d\	e-	>	(4f#X\	e-	>	(4ff#\	e-	.	(4b\	e-	<
4C#\	8 6\	.	4BB-X/	.	.	4c#\)	.	.	4e\	.	.	4ee\	.	.	4cc#\	.	.
8D\L	8 6nr	.	4BBn/	-rat	.	4B\	-rat	.	4d\)	-rat	]	4dd\)	-rat	]	4dd\)	-rat	.
8C#'\	.	.	.	.	.	.	.	.	.	.	.	.	.	.	.	.	.
8BB'\	.	.	4r	.	[	4r	.	]	4r	.	.	4r	.	.	4r	.	[
8AA'\J	.	.	.	.	.	.	.	.	.	.	.	.	.	.	.	.	.
=35	=35	=35	=35	=35	=35	=35	=35	=35	=35	=35	=35	=35	=35	=35	=35	=35	=35
2GG#X/	7n 5	.	2r	.	.	2r	.	.	2r	.	.	2r	.	.	(4.dd\	in	<
.	.	.	.	.	.	.	.	.	.	.	.	.	.	.	8ee\)	.	.
4r	.	.	4r	.	.	4r	.	.	4r	.	.	4r	.	.	4ff#\	.	.
!	!	!	!	!	!LO:DY:a	!	!	!LO:HP:a	!	!	!	!	!	!LO:HP:b	!	!	!
4D\	6 3	.	8B\	in	>	8d\	in	>	8fn\	in	>	8ffn\	in	>	4g#X\	prin-	[
.	.	.	8B\	prin-	]]	8d\	prin-	]	8f\	prin-	]]	8ff\	prin-	.	.	.	.
=36	=36	=36	=36	=36	=36	=36	=36	=36	=36	=36	=36	=36	=36	=36	=36	=36	=36
!	!	!	!	!	!	!	!	!LO:HP:a	!	!	!	!	!	!	!	!	!
4C#/	.	.	4E\	-ci-	<	4c#\	-ci-	>	4e\	-ci-	.	(4ee\	-ci-	.	(4a\	-ci-	<
(<4GG#X/	.	.	4G#X\	-pi-	.	4B\	-pi-	.	4d\	-pi-	.	4dd\	-pi-	]	4b\	-pi-	.
8AA/L)	.	.	4A\	-o	.	4A\	-o	.	4c#\	-o	.	4cc#\)	-o	.	4cc#\)	-o	[
8AA'/	.	.	.	.	.	.	.	.	.	.	.	.	.	.	.	.	.
8BB'/	.	.	4r	.	[	4r	.	]	4r	.	.	4r	.	.	4r	.	.
8C#'/J	.	.	.	.	.	.	.	.	.	.	.	.	.	.	.	.	.
!	!	!	!	!	!	!LO:LB:g=original	!	!	!LO:LB:g=original	!	!	!	!	!	!LO:LB:g=original	!	!
=37	=37	=37	=37	=37	=37	=37	=37	=37	=37-	=37	=37	=37	=37	=37	=37	=37	=37
!	!	!	!	!	!LO:DY:a	!	!	!LO:DY:b	!	!	!LO:DY:b:t=pp.	!	!	!LO:DY:b:rj	!	!	!LO:DY:b:rj
!	!	!LO:DY:b	!	!	!	!	!	!	!	!	!	!	!	!LO:HP:b	!	!	!
4D\	5	pp	2D\	et	pp	[>4f#\	et	pp >	2a^>\	Si-	pp	4dd\	et	pp >	[>4dd\	et	pp >
4D\	.	.	.	.	.	4f#\]	.	]	.	.	.	4dd\	.	.	4dd\]	.	]
!	!	!	!	!	!LO:DY:a	!	!	!LO:HP:a	!	!	!	!LO:TX:a:t=cis	!	!	!	!	!LO:HP:a
4E\	6_ 4_	.	4E\	nunc	>	[>4e\	nunc	>	2a^>\	-cut	.	4cc#\	nunc	.	4cc#\	nunc	>
4E\	.	.	4E\	et	]	4e\]	.	]	.	.	.	4cc#\	et	]	4cc#\	et	]
!	!	!	!	!	!	!	!	!	!	!	!	!LO:LB:g=original	!	!	!	!	!
=38	=38	=38	=38	=38	=38	=38	=38	=38	=38	=38	=38	=38	=38	=38	=38	=38	=38
!	!	!	!	!	!LO:DY:a	!LO:SIC:v:l:s=et	!	!	!	!	!	!	!	!	!	!	!LO:DY:a
4F#\	4_	.	2F#\	sem-	<	4d^>\	e	.	4f#\	e-	.	4dd\	sem-	.	4b\	sem-	<
!	!	!	!	!	!	!	!	!LO:HP:a	!	!	!	!	!	!	!	!	!
4F#\	.	.	.	.	.	8d\	sem-	>	4f#\	-rat	.	4dd\	-per	.	4b\	-per	.
.	.	.	.	.	.	8d\	-per	]	.	.	.	.	.	.	.	.	.
!	!	!	!	!	!	!	!	!LO:HP:a	!	!	!LO:DY:a	!	!	!	!	!	!
4GG#X/	5_ 3_	.	4G#\	-per	[	8d\L	et	<	(8d\L	in	<	(8dd\L	et	.	(8b\L	et	[
.	.	.	.	.	.	8e\J	.	.	8e\	.	.	8ee\J	.	.	8cc#\)	.	.
4GG#/	x x	.	4G#\	et	.	8f#\L	in	[	8f#\	.	[	8ff#\L	.	.	(8dd\	.	.
!	!	!	!	!	!	!	!	!	!	!	!LO:DY:a	!	!	!	!	!	!
.	.	.	.	.	.	8d\J	.	.	8d\J)	.	>]	8dd\J)	.	.	8b\J)	.	.
=39	=39	=39	=39	=39	=39	=39	=39	=39	=39	=39	=39	=39	=39	=39	=39	=39	=39
!	!	!	!	!	!LO:HP:b	!LO:SIC:v:l:s=sae-	!	!	!LO:N:vis=2	!	!	!	!	!	!	!	!
4AA/	.	.	4A\	in	<	2c#^>\	se-	.	4c#\	prin-	.	4cc#\	in	.	4a\	in	.
!	!	!	!	!	!	!	!	!	!	!	!	!LO:SIC:v:l:s=sae-	!	!	!LO:SIC:v:l:s=sae-	!	!
4C#/	.	.	4c#\	.	.	.	.	.	4c#\	-ci-	.	4cc#\	se-	.	4a\	se-	.
!	!	!	!LO:SIC:v:l:s=sae-	!	!	!	!	!	!	!	!	!	!	!	!	!	!
4E/	.	.	4e\	se-	.	2B^>\	-cu-	.	2B\	-pi-	.	2b\	-cu-	.	2g#X\	-cu-	.
4EE/	.	.	4E\	-cu-	[	.	.	.	.	.	.	.	.	.	.	.	.
=40	=40	=40	=40	=40	=40	=40	=40	=40	=40	=40	=40	=40	=40	=40	=40	=40	=40
!	!	!LO:DY:b:t=for	!	!	!LO:HP:a	!	!	!LO:DY:a	!	!	!	!	!	!	!	!	!
8r	.	f	2A\	-la	>]	2c#\	-la	<	2c#\	-o	.	2cc#\	-la	.	2a\	-la	.
8AA'/L	.	.	.	.	.	.	.	.	.	.	.	.	.	.	.	.	.
8.GG#'/	.	.	.	.	.	.	.	.	.	.	.	.	.	.	.	.	.
16AA'/Jk	.	.	.	.	.	.	.	.	.	.	.	.	.	.	.	.	.
!LO:LB:g=original	!	!	!	!	!	!	!	!	!	!	!	!	!	!	!	!	!
=-	=-	=-	=-	=-	=-	=-	=-	=-	=-	=-	=-	=-	=-	=-	=-	=-	=-
8.C#'/L	.	.	2r	.	.	2r	.	[	2r	.	.	2r	.	.	2r	.	.
16AA'/K	.	.	.	.	.	.	.	.	.	.	.	.	.	.	.	.	.
8.E'/	.	.	.	.	.	.	.	.	.	.	.	.	.	.	.	.	.
16C#'/Jk	.	.	.	.	.	.	.	.	.	.	.	.	.	.	.	.	.
!	!	!	!LO:LB:g=original	!	!	!	!	!	!	!	!	!	!	!	!	!	!
=41	=41	=41	=41	=41	=41	=41	=41	=41	=41	=41	=41	=41	=41	=41	=41	=41	=41
!	!	!	!	!	!LO:DY:b:t=for:rj	!	!	!LO:DY:b:t=fo:rj	!	!	!LO:DY:b:t=for:rj	!	!	!	!	!	!LO:DY:b:t=for:rj
2AA/	3 1	.	4A\	et	f <	4e\	et	f	2a^>\	et	f	4cc#\	et	.	4cc#\	et	f >
!	!	!	!	!	!	!	!	!LO:DY:a	!	!	!	!	!	!	!	!	!
.	.	.	4A\	in	.	4e\	in	>	.	.	.	4cc#\	in	.	4cc#\	in	.
!	!	!	!LO:SIC:v:l:s=sae-	!	!	!LO:SIC:v:l:s=sae-	!	!	!	!	!	!LO:SIC:v:l:s=sae-	!	!	!LO:SIC:v:l:s=sae-	!	!
2r	.	.	4A\	se-	.	4e\	se-	.	4a^>\	nunc	.	4cc#\	se-	.	4cc#\	se-	.
!	!	!	!LO:SIC:v:l:s=sae-	!	!	!	!	!	!	!	!	!	!	!	!	!	!
.	.	.	8A\	-cu-	.	8e\	-cu-	.	4a\	et	.	8ee\	-cu-	.	8cc#\	-cu-	]
.	.	.	8A\	-la	[	8e\	-la	]	.	.	.	8ee\	-la	.	8cc#\	-la	.
=42	=42	=42	=42	=42	=42	=42	=42	=42	=42	=42	=42	=42	=42	=42	=42	=42	=42
!	!	!	!LO:SIC:v:l:s=sae-	!	!	!	!	!	!	!	!	!	!	!	!	!	!
!	!	!	!LO:SIC:v:l:s=sae-	!	!	!LO:SIC:v:l:s=sae-	!	!LO:DY:a	!	!	!LO:DY:a	!	!	!	!	!	!LO:DY:a
.	.	.	.	.	.	8qqf#/	.	>	8qqcc#/	.	>	.	.	.	8qqee/	.	>
8r	.	.	8B-X\	se-	.	8e\	se-	.	4b\	sem-	.	8dd\	sae-	.	8dd\	sae-	.
8E'\L	7_ 5_	.	8Bn\	-cu-	.	8e\	-cu-	.	.	.	.	8dd\	-cu-	.	8dd\	-cu-	.
8.D#X'\	.	.	4E\	-la	.	4e\	-la	]	4b\	-per	]	4dd\	-la	.	4dd\	-la	]
16E'\Jk	x x	.	.	.	.	.	.	.	.	.	.	.	.	.	.	.	.
8.G#'\L	.	.	2r	.	.	2r	.	.	2r	.	.	2r	.	.	2r	.	.
16E'\K	.	.	.	.	.	.	.	.	.	.	.	.	.	.	.	.	.
8.B'\	.	.	.	.	.	.	.	.	.	.	.	.	.	.	.	.	.
16G#'\Jk	.	.	.	.	.	.	.	.	.	.	.	.	.	.	.	.	.
=43	=43	=43	=43	=43	=43	=43	=43	=43	=43	=43	=43	=43	=43	=43	=43	=43	=43
!	!	!	!LO:SIC:v:l:s=sae-	!	!LO:DY:a	!LO:SIC:v:l:s=sae-	!	!	!	!	!LO:DY:a	!	!	!	!LO:SIC:v:l:s=sae-	!	!
2E\	7 5	.	2B\	se-	>	2e^>\	se-	.	2b\	et	>	2dd\	sae-	.	2dd\	se-	.
2r	.	.	2B\	-cu-	]	2e^>\	-cu-	.	4b\	in	.	2dd\	-cu-	.	2dd\	-cu-	.
.	.	.	.	.	.	.	.	.	4b\	sae-	]	.	.	.	.	.	.
!	!	!	!	!	!	!LO:LB:g=original	!	!	!	!	!	!	!	!	!	!	!
=44	=44	=44	=44	=44	=44	=44	=44	=44	=44	=44	=44	=44	=44	=44	=44	=44	=44
!	!	!	!	!	!	!	!	!LO:DY:a	!	!	!LO:DY:a	!	!	!	!	!	!
8r	.	.	8B\L	-lo-	.	4e\	-lo-	<	8b\L	-cu-	>	8dd\L	-lo-	.	8dd\L	-lo-	.
8AA'/L	3 1	.	8A\J	.	.	.	.	.	8a\J	.	.	8cc#\J	.	.	8cc#\J	.	.
!	!	!	!	!	!LO:HP:a	!	!	!	!	!	!	!	!	!	!	!	!
8.GG#X'/	.	.	4A\	-rum	>	4e\	-rum	[	4a\	-la	]	4cc#\	-rum	.	4cc#\	-rum	.
16AA'/Jk	.	.	.	.	.	.	.	.	.	.	.	.	.	.	.	.	.
8.C#'/L	.	.	2r	.	]	2r	.	.	2r	.	.	2r	.	.	2r	.	.
16AA'/K	.	.	.	.	.	.	.	.	.	.	.	.	.	.	.	.	.
8.E'/	.	.	.	.	.	.	.	.	.	.	.	.	.	.	.	.	.
16C#'/Jk	.	.	.	.	.	.	.	.	.	.	.	.	.	.	.	.	.
!	!	!	!	!	!	!	!	!	!LO:LB:g=original	!	!	!LO:LB:g=original	!	!	!LO:LB:g=original	!	!
=45	=45	=45	=45	=45	=45	=45	=45	=45	=45	=45	=45	=45	=45	=45	=45	=45	=45
!	!	!	!	!	!	!	!	!	!LO:SIC:v:l:s=sae-	!	!	!LO:SIC:v:l:s=Sae-	!	!	!LO:SIC:v:l:s=sae-	!	!
4AA#X/	7n_ 5_	.	2A#X^>\	A-	.	2e^>\	sae-	.	2cc#^<\	se-	.	2g#\	Se-	.	2gg#\	se-	.
4C#/	.	.	.	.	.	.	.	.	.	.	.	.	.	.	.	.	.
!	!	!	!	!	!LO:HP:a	!	!	!	!	!	!	!	!	!	!	!	!
4E/	.	.	4A#\	-men	>	4e^>\	-cu-	.	4cc#^>\	-cu-	.	2g#\	-cu-	.	2gg#\	-cu-	.
4C#/	x x	.	4A#\	a-	]	4e^>\	-lo-	.	4cc#^>\	-lo-	.	.	.	.	.	.	.
=46	=46	=46	=46	=46	=46	=46	=46	=46	=46	=46	=46	=46	=46	=46	=46	=46	=46
!	!	!	!	!	!	!	!	!LO:DY:a	!	!	!LO:HP:b	!	!	!	!	!	!LO:DY:a
2D\	3 1	.	2B^>\	-men	.	2f#\	-rum	>	2dd\	-rum	>]	4dd\	-lo-	.	(8ff#\L	-lo-	<
.	.	.	.	.	.	.	.	.	.	.	.	.	.	.	8a#X\J)	.	.
.	.	.	.	.	.	.	.	.	.	.	.	4g#X\	-rum	.	(8bn\L	-rum	.
.	.	.	.	.	.	.	.	.	.	.	.	.	.	.	8cc#X\J)	.	.
!	!	!	!	!	!LO:HP:a	!	!	!LO:DY:a	!	!	!LO:HP:b	!	!	!	!	!	!
2r	.	.	4B\	a-	>	4f#\	A-	] >	4dd\	A-	<	4b\	A-	.	(8ee\L	A-	.
!	!	!	!	!	!	!	!	!	!	!	!	!	!	!	!	!	!LO:DY:a
.	.	.	.	.	.	.	.	.	.	.	.	.	.	.	8dd\J)	.	[ <
.	.	.	4B\	-men	]	4f#\	-men	]]	4dd\	-men	[	4f#X/	-men	.	(8b\L	-men	.
.	.	.	.	.	.	.	.	.	.	.	.	.	.	.	8ff#\J)	.	[
=47	=47	=47	=47	=47	=47	=47	=47	=47	=47	=47	=47	=47	=47	=47	=47	=47	=47
!	!	!	!	!	!LO:HP:b	!	!	!	!	!	!LO:HP:b	!	!	!	!	!	!
4AA/	3_ 1_	.	4A\	Al-	<	4e\	Al-	.	4dd\	A-	>	4ee\	A-	.	4a\	A-	.
!	!	!	!	!	!	!	!	!LO:HP:a	!	!	!	!	!	!	!	!	!
8.C#/L	.	.	8c#\	-le-	.	8e-X\	-le-	>	4cc#\	-men	.	4ee\	-men	.	4a\	-men	.
.	.	.	8c#\	-lu-	[	8e-\	-lu-	]	.	.	.	.	.	.	.	.	.
16AA/Jk	.	.	.	.	.	.	.	.	.	.	.	.	.	.	.	.	.
!	!	!	!LO:LB:g=original	!	!	!	!	!	!	!	!	!	!	!	!	!	!
=-	=-	=-	=-	=-	=-	=-	=-	=-	=-	=-	=-	=-	=-	=-	=-	=-	=-
!	!	!	!	!	!LO:HP:a	!	!	!LO:HP:a	!	!	!LO:HP:b	!	!	!	!	!	!
4E\	6 4	.	4E\ 4e	-ja	<	4d\	-ja	<[	4b\	Al-	] <	8ee\L	Al-	.	8a\L	Al-	.
.	.	.	.	.	.	.	.	.	.	.	.	8dd#X\J	.	.	8g#X\J	.	.
!	!	!	!	!	!	!	!	!LO:HP:b	!	!	!	!	!	!	!	!	!
4EE/	5 3	.	8F#'\L	Al-	.	8G#X/	Al-	<	4g#X\	-le-	.	8dd#\L	-le-	.	8cc#\L	-le-	.
.	.	.	8G#'\J	-le-	[	8G#/	-le-	[	.	.	.	8ee\J	.	.	8b\J	.	.
=48	=48	=48	=48	=48	=48	=48	=48	=48	=48	=48	=48	=48	=48	=48	=48	=48	=48
!	!	!LO:DY:b:t=ffor	!	!	!	!	!	!LO:HP:a	!	!	!	!	!	!	!	!	!LO:DY:a
8r	.	ff	2G#^>\	-lu-	.	2d\	-lu-	>	2g#\	-lu-	[	2dd\	-lu-	.	2b\	-lu-	>]
8EE'/L	5_ 3_	.	.	.	.	.	.	.	.	.	.	.	.	.	.	.	.
8FF#'/	.	.	.	.	.	.	.	.	.	.	.	.	.	.	.	.	.
!	!	!LO:HP:b	!	!	!	!	!	!	!	!	!	!	!	!	!	!	!
8GG#X'/J	x x	<	.	.	.	.	.	.	.	.	.	.	.	.	.	.	.
!	!	!	!	!	!LO:DY:a	!	!	!	!	!	!	!	!	!	!	!	!LO:DY:a
32AA'/LLL	.	.	4A\	-ja	<[	4c#\	-ja	]	4a\	-ja	.	4cc#\	-ja	.	4a\	-ja	<[
32BB'/	.	.	.	.	.	.	.	.	.	.	.	.	.	.	.	.	.
32C#'/	.	.	.	.	.	.	.	.	.	.	.	.	.	.	.	.	.
32D'/JJJ	.	.	.	.	.	.	.	.	.	.	.	.	.	.	.	.	.
32E'/LLL	.	.	.	.	.	.	.	.	.	.	.	.	.	.	.	.	.
32F#'/	.	.	.	.	.	.	.	.	.	.	.	.	.	.	.	.	.
32G#'/	.	.	.	.	.	.	.	.	.	.	.	.	.	.	.	.	.
32A'/JJJ	.	.	.	.	.	.	.	.	.	.	.	.	.	.	.	.	.
!LO:TX:b:t=Vidiaquam Ofiarowane dla Ja(ś)nie Pana Leopolda Mężniewskiego \nza Mięszkałego w Częstochowie \nz Gostynia Białoszewski	!	!	!LO:TX:a:t=V Domine apud te est fons vite Alleluja.\nR Et. in nomine tuo vide bimus lumen Alleluja	!	!	!LO:TX:b:t=V Domine aput te est fons vite Alleluja\nR Et in nomine tuo vide bimus lumen Alleluja	!	!	!LO:TX:b:t=V Domine apud te est fons vitae Alleluja\nR Et in nomine tuo vide bimus lumen Alle\nluya	!	!	!LO:TX:a:t=V Domine apud te est fons vitae Allelu\nR Et in nomine tuo vide bimus lumen\nAlleluja	!	!	!LO:TX:a:t=V Domine apud te est fons vitae Alla\nR Et in nomine tuo vide bimus lumen\nAlleluja	!	!
4r	.	[	4r	.	.	4r	.	.	4r	.	.	4r	.	.	4r	.	.
!LO:PB:g=original	!	!	!	!	!	!	!	!	!	!	!	!LO:PB:g=original	!	!	!LO:PB:g=original	!	!
==	==	==	==	==	==	==	==	==	==	==	==	==	==	==	==	==	==
*-	*-	*-	*-	*-	*-	*-	*-	*-	*-	*-	*-	*-	*-	*-	*-	*-	*-
!!!system-decoration: [(s1,s2,s3,s4,s5)]s6
!!!RDF**kern: < = below
!!!RDF**kern: > = above
!!!RDF**kern: @ = marked note, color=grey
!!!ENC: Andrzej Borzym
!!!END: 2020-07-22
!!!ENC: Marta Chmielewska
!!!END: 2021-12-29
!!!YEC: Copyright 2022 Narodowy Instytut Fryderyka Chopina (https://polishscores.org)
!!!YEM: Licence CC BY 4.0 (https://creativecommons.org/licenses/by/4.0)
